X:1
T:Title
%%score 1 { 2 | 3 }
L:1/8
Q:1/4=115
M:4/4
K:Eb
V:1 treble nm="Grand Piano, Soprano"
V:2 bass nm="Choir Pad, Escoffier, 11.11.11.11.11.11"
V:3 bass 
V:1
 E2 [EG]4 [EF]2 | E2 [Ac]4 [GB]2 | [EB]2 [DB]4 [DF]2 | [DF]2 [EG]6 | [EG]>[EG] [EA]4 [EA]2 | %5
w: By~George~C.~Kersey,~1896 * *|||||
 [EA]2 [EG]4 [EG]2 | [EG]2 [DF]4 [EG]2 | [E=A]2 [DB]6 | [EG]2 [GB]4 [FA]2 | [EG]2 [Ac]4 [GB]2 | %10
w: |||||
 [EG]2 [Ee]4 [EA]2 | [Ac]2 [GB]6 | [GB]2 [Ee]4 [EA]2 | [Ac]2 [GB]4 [EG]2 | E2 [CF]4 [B,E]2 | %15
w: |||||
 [B,D]2 [B,E]6 | [GB]2 [GB]4 [FA]2 | [EG]2 [DA]4 [DA]2 | [FA]2 [Af]4 [Ad]2 | [FA]2 [EG]6 | %20
w: |||||
 [EB][EB] [Ee]4 [EA]2 | [Ac]2 [GB]4 [EG]2 | E2 [CF]4 [B,E]2 | [B,D]2 [B,E]6- | [B,E]2 z2 z4 |] %25
w: |||||
V:2
 G,2 B,4 A,2 | G,2 E4 E2 | G,2 F,4 B,2 | B,2 B,6 | B,>B,[K:treble] C4 C2 | C2 B,4 B,2 | %6
 B,2 B,4 B,2 | C2 B,6 | B,2 E4 B,2 | B,2[K:treble] E4 E2 | B,2 C4 C2 | E2 E6 | E2 C4 C2 | %13
 E2 E4[K:bass] B,2 | G,2 A,4 G,2 | F,2 G,6 | E2 E4 B,2 | B,2 B,4 B,2 | B,2 B,4 B,2 | B,2 B,6 | %20
 G,G,[K:treble] C4 C2 | E2 E4 B,2 | G,2 A,4 G,2 | F,2 G,6- | G,2 z2 z4 |] %25
V:3
 E,2 E,4 E,2 | E,2 E,4 E,2 | E,2 B,,4 B,,2 | B,,2 E,6 | E,>E, A,,4 A,,2 | C,2 E,4 E,2 | %6
 E,2 F,4 F,2 | F,2 B,,6 | E,2 E,4 E,2 | E,2 E,4 E,2 | E,2 A,,4 A,,2 | A,,2 E,6 | E,2 A,,4 A,,2 | %13
 A,,2 E,4 E,2 | E,2 A,,4 B,,2 | B,,2 E,6 | E,2 E,4 E,2 | E,2 F,4 F,2 | F,2 B,,4 B,,2 | B,,2 E,6 | %20
 E,E, A,,4 A,,2 | A,,2 E,4 E,2 | E,2 A,,4 B,,2 | B,,2 E,6- | E,2 z2 z4 |] %25

